Newaita-dark/apps/48/digikam.svg

<svg height="48pt" viewBox="0 0 48 48" width="48pt" xmlns="http://www.w3.org/2000/svg" xmlns:xlink="http://www.w3.org/1999/xlink"><linearGradient id="a"><stop offset="0" stop-opacity=".313726"/><stop offset=".222222" stop-opacity=".27451"/><stop offset="1" stop-opacity="0"/></linearGradient><radialGradient id="b" cx="450.908936" cy="189.579361" gradientTransform="matrix(.00000026 -.117199 -.210958 -.00000015 65.296304 95.392994)" gradientUnits="userSpaceOnUse" r="21.166656" xlink:href="#a"/><radialGradient id="c" cx="450.908936" cy="189.579361" gradientTransform="matrix(-.00000026 .117199 .210958 .00000015 -17.666755 -11.291223)" gradientUnits="userSpaceOnUse" r="21.166656" xlink:href="#a"/><radialGradient id="d" cx="450.908936" cy="189.579361" gradientTransform="matrix(-.00000026 -.117199 .210958 -.00000015 -17.666755 95.392994)" gradientUnits="userSpaceOnUse" r="21.166656" xlink:href="#a"/><radialGradient id="e" cx="450.908936" cy="189.579361" gradientTransform="matrix(.00000026 .117199 -.210958 .00000015 65.296302 -11.291224)" gradientUnits="userSpaceOnUse" r="21.166656" xlink:href="#a"/><linearGradient id="f" gradientTransform="matrix(.0200401 0 0 .093759 18.698079 20.158175)" gradientUnits="userSpaceOnUse" x1="255.323059" x2="255.323044" y1="233.5" y2="254.666656"><stop offset="0" stop-opacity=".27451"/><stop offset="1" stop-opacity="0"/></linearGradient><linearGradient id="g"><stop offset="0" stop-color="#616161"/><stop offset="1" stop-color="#424242"/></linearGradient><linearGradient id="h" gradientUnits="userSpaceOnUse" x1="23.814786" x2="23.814786" xlink:href="#g" y1="4.34415649995" y2="42.0509015"/><linearGradient id="i" gradientTransform="matrix(.26565 0 0 -.26565 -43.660429 31.809031)" gradientUnits="userSpaceOnUse" x1="254" x2="254" xlink:href="#g" y1="-31.083334" y2="95.916664"/><linearGradient id="j"><stop offset="0" stop-color="#64b5f6"/><stop offset="1" stop-color="#42a5f5"/></linearGradient><linearGradient id="k" gradientUnits="userSpaceOnUse" x1="960.000112" x2="960.000112" xlink:href="#j" y1="295.11811498163" y2="1575.118224"/><linearGradient id="l" gradientUnits="userSpaceOnUse" x1="960.000127" x2="960.000127" xlink:href="#j" y1="295.11805398163" y2="1575.11821969292"/><linearGradient id="m" gradientUnits="userSpaceOnUse" x1="960.000124" x2="960.000124" xlink:href="#j" y1="295.11805398163" y2="1575.118163"/><linearGradient id="n" gradientUnits="userSpaceOnUse" x1="960.000123" x2="960.000123" xlink:href="#j" y1="295.11805398163" y2="1575.118163"/><linearGradient id="o" gradientUnits="userSpaceOnUse" x1="960.000121" x2="960.000121" xlink:href="#j" y1="295.11805398163" y2="1575.118163"/><linearGradient id="p" gradientUnits="userSpaceOnUse" x1="960.000126" x2="960.000126" xlink:href="#j" y1="295.11805398163" y2="1575.11821969292"/><linearGradient id="q" gradientUnits="userSpaceOnUse" x1="254" x2="254" xlink:href="#g" y1="-73.416664" y2="138.25"/><path d="m25.800781 42.050781h3.96875v-1.984375h-3.96875zm0 0" fill="url(#b)"/><path d="m21.832031 42.050781h-3.972656v1.984375h3.972656zm0 0" fill="url(#c)"/><path d="m21.832031 42.050781h-3.972656v-1.984375h3.972656zm0 0" fill="url(#d)"/><path d="m25.800781 42.050781h3.96875v1.984375h-3.96875zm0 0" fill="url(#e)"/><path d="m21.832031 41.554688h3.96875v2.480468h-3.96875zm0 0" fill="url(#f)"/><path d="m23.816406 4.34375c10.410156 0 18.851563 8.441406 18.851563 18.855469 0 10.410156-8.441407 18.851562-18.851563 18.851562-10.414062 0-18.855468-8.441406-18.855468-18.851562 0-10.414063 8.441406-18.855469 18.855468-18.855469zm0 0" fill="url(#h)"/><path d="m23.816406 37.089844c8.765625 0 15.875-6.21875 15.875-13.890625v-.992188c0-7.675781-7.109375-13.894531-15.875-13.894531-8.769531 0-15.878906 6.21875-15.878906 13.894531v.992188c0 7.671875 7.109375 13.890625 15.878906 13.890625zm0 0" fill="url(#i)"/><path d="m23.816406 42.050781c-10.445312 0-18.855468-8.410156-18.855468-18.851562 0-.0625 0-.125 0-.1875.101562 10.359375 8.472656 18.667969 18.855468 18.667969 10.382813 0 18.753906-8.308594 18.851563-18.667969v.1875c0 10.441406-8.410157 18.851562-18.851563 18.851562zm0 0" fill-opacity=".196078"/><path d="m23.816406 4.34375c-10.445312 0-18.855468 8.410156-18.855468 18.855469v.183593c.101562-10.359374 8.472656-18.667968 18.855468-18.667968 10.382813 0 18.753906 8.308594 18.851563 18.667968 0-.0625 0-.125 0-.183593 0-10.445313-8.410157-18.855469-18.851563-18.855469zm0 0" fill="#fff" fill-opacity=".392157"/><g stroke="#212121" stroke-linecap="round"><path d="m429.407835 576.165482c-69.127261 102.19497-109.438374 225.647755-109.438374 359.020852 0 354.454359 285.484564 639.938922 640.096388 639.938922 15.116668 0 30.233335-.472395 45.192537-1.574652zm0 0" fill="url(#k)" stroke-width="11.338583" transform="scale(.0248071)"/><path d="m960.065849 295.089946c-354.611824 0-640.096388 285.484564-640.096388 640.096388 0 133.215632 40.311113 256.668416 109.438374 358.863387l575.850551-997.385122c-14.959202-.944792-30.075869-1.574653-45.192537-1.574653zm0 0" fill="url(#l)" stroke-width="11.338583" transform="scale(.0248071)"/><path d="m960.065849 295.089946c-254.148972 0-472.553323 146.600181-576.165482 359.965644h1152.173498c-103.454692-213.365463-322.01651-359.965644-576.008016-359.965644zm0 0" fill="url(#m)" stroke-width="11.338583" transform="scale(.0248071)"/><path d="m960.065849 295.089946c-15.274133 0-30.3908.629861-45.350002 1.574653l575.850551 997.385122c69.12726-102.194971 109.438374-225.647755 109.438374-358.863387 0-354.611824-285.484564-640.096388-639.938923-640.096388zm0 0" fill="url(#n)" stroke-width="11.338583" transform="scale(.0248071)"/><path d="m1490.566398 576.165482-530.500549 918.967409 45.192537 78.417713c333.354011-23.147398 594.746386-299.026579 594.746386-638.36427 0-133.373097-40.311114-256.825882-109.438374-359.020852zm0 0" fill="url(#o)" stroke-width="11.338583" transform="scale(.0248071)"/><path d="m798.349 1215.159612 206.909386 358.390992c234.623276-16.218925 433.501933-157.780217 530.815479-358.390992zm0 0" fill="url(#p)" stroke-width="11.338583" transform="scale(.0248071)"/><path d="m254.017409-31.100895c35.038321 0 63.493937 28.455616 63.493937 63.535599 0 35.038321-28.455616 63.493937-63.493937 63.493937-35.079983 0-63.535599-28.455616-63.535599-63.493937 0-35.079983 28.455616-63.535599 63.535599-63.535599zm0 0" fill="url(#q)" stroke-linejoin="round" stroke-width="3" transform="matrix(.093759 0 0 .093759 0 20.158175)"/></g><path d="m23.816406 4.203125c-10.523437 0-18.996094 8.472656-18.996094 18.996094 0 10.519531 8.472657 18.992187 18.996094 18.992187 10.519532 0 18.992188-8.472656 18.992188-18.992187 0-10.523438-8.472656-18.996094-18.992188-18.996094zm0 .28125c10.367188 0 18.710938 8.34375 18.710938 18.714844 0 10.367187-8.34375 18.710937-18.710938 18.710937-10.371094 0-18.714844-8.34375-18.714844-18.710937 0-10.371094 8.34375-18.714844 18.714844-18.714844zm0 0" fill="#212121"/><path d="m20.433594 19.664062c1.160156-1.164062 2.574218-1.632812 3.15625-1.050781.582031.578125.109375 1.992188-1.050782 3.15625-1.164062 1.164063-2.578124 1.632813-3.160156 1.050781-.582031-.578124-.109375-1.992187 1.054688-3.15625zm0 0" fill="#fff" fill-opacity=".196078"/><path d="m23.820312 7.320312c-8.796874 0-15.878906 7.082032-15.878906 15.878907 0 .117187.003906.234375.003906.355469.1875-8.632813 7.195313-15.523438 15.875-15.523438 8.675782 0 15.683594 6.890625 15.871094 15.523438.003906-.121094.003906-.238282.003906-.355469 0-8.796875-7.082031-15.878907-15.875-15.878907zm0 0" fill="#353535" fill-opacity=".235294"/><path d="m23.820312 39.816406c-8.796874 0-15.878906-7.078125-15.878906-15.875 0-.117187.003906-.238281.003906-.355468.1875 8.628906 7.195313 15.519531 15.875 15.519531 8.675782 0 15.683594-6.890625 15.871094-15.519531.003906.117187.003906.238281.003906.355468 0 8.796875-7.082031 15.875-15.875 15.875zm0 0" fill="#fff" fill-opacity=".392157"/><path d="m254.015149-136.924367c93.491072 0 169.317164 75.826092 169.317164 169.358827 0 93.491072-75.826092 169.317164-169.317164 169.317164-93.532735 0-169.358827-75.826092-169.358827-169.317164 0-93.532735 75.826092-169.358827 169.358827-169.358827zm0 0" fill="none" stroke="#212121" stroke-linecap="round" stroke-width="3" transform="matrix(.093759 0 0 .093759 .004118 20.158198)"/></svg>

<?xml version="1.0" encoding="UTF-8"?>
<svg xmlns="http://www.w3.org/2000/svg" xmlns:xlink="http://www.w3.org/1999/xlink" width="48pt" height="48pt" viewBox="0 0 48 48" version="1.1">
<defs>
<radialGradient id="radial0" gradientUnits="userSpaceOnUse" cx="450.908936" cy="189.579361" fx="450.908936" fy="189.579361" r="21.166656" gradientTransform="matrix(0.000000261256,-0.117199,-0.210958,-0.000000152308,65.296304,95.392994)">
<stop offset="0" style="stop-color:rgb(0%,0%,0%);stop-opacity:0.313726;"/>
<stop offset="0.222222" style="stop-color:rgb(0%,0%,0%);stop-opacity:0.27451;"/>
<stop offset="1" style="stop-color:rgb(0%,0%,0%);stop-opacity:0;"/>
</radialGradient>
<radialGradient id="radial1" gradientUnits="userSpaceOnUse" cx="450.908936" cy="189.579361" fx="450.908936" fy="189.579361" r="21.166656" gradientTransform="matrix(-0.000000261256,0.117199,0.210958,0.000000152308,-17.666755,-11.291223)">
<stop offset="0" style="stop-color:rgb(0%,0%,0%);stop-opacity:0.313726;"/>
<stop offset="0.222222" style="stop-color:rgb(0%,0%,0%);stop-opacity:0.27451;"/>
<stop offset="1" style="stop-color:rgb(0%,0%,0%);stop-opacity:0;"/>
</radialGradient>
<radialGradient id="radial2" gradientUnits="userSpaceOnUse" cx="450.908936" cy="189.579361" fx="450.908936" fy="189.579361" r="21.166656" gradientTransform="matrix(-0.000000261256,-0.117199,0.210958,-0.000000152308,-17.666755,95.392994)">
<stop offset="0" style="stop-color:rgb(0%,0%,0%);stop-opacity:0.313726;"/>
<stop offset="0.222222" style="stop-color:rgb(0%,0%,0%);stop-opacity:0.27451;"/>
<stop offset="1" style="stop-color:rgb(0%,0%,0%);stop-opacity:0;"/>
</radialGradient>
<radialGradient id="radial3" gradientUnits="userSpaceOnUse" cx="450.908936" cy="189.579361" fx="450.908936" fy="189.579361" r="21.166656" gradientTransform="matrix(0.000000261256,0.117199,-0.210958,0.000000152308,65.296302,-11.291224)">
<stop offset="0" style="stop-color:rgb(0%,0%,0%);stop-opacity:0.313726;"/>
<stop offset="0.222222" style="stop-color:rgb(0%,0%,0%);stop-opacity:0.27451;"/>
<stop offset="1" style="stop-color:rgb(0%,0%,0%);stop-opacity:0;"/>
</radialGradient>
<linearGradient id="linear0" gradientUnits="userSpaceOnUse" x1="255.323059" y1="233.5" x2="255.323044" y2="254.666656" gradientTransform="matrix(0.0200401,0,0,0.093759,18.698079,20.158175)">
<stop offset="0" style="stop-color:rgb(0%,0%,0%);stop-opacity:0.27451;"/>
<stop offset="1" style="stop-color:rgb(0%,0%,0%);stop-opacity:0;"/>
</linearGradient>
<linearGradient id="linear1" gradientUnits="userSpaceOnUse" x1="254" y1="-168.666672" x2="254" y2="233.5" gradientTransform="matrix(0.093759,0,0,0.093759,0,20.158175)">
<stop offset="0" style="stop-color:rgb(38.039216%,38.039216%,38.039216%);stop-opacity:1;"/>
<stop offset="1" style="stop-color:rgb(25.882354%,25.882354%,25.882354%);stop-opacity:1;"/>
</linearGradient>
<linearGradient id="linear2" gradientUnits="userSpaceOnUse" x1="254" y1="-31.083334" x2="254" y2="95.916664" gradientTransform="matrix(0.26565,0,0,-0.26565,-43.660429,31.809031)">
<stop offset="0" style="stop-color:rgb(38.039216%,38.039216%,38.039216%);stop-opacity:1;"/>
<stop offset="1" style="stop-color:rgb(25.882354%,25.882354%,25.882354%);stop-opacity:1;"/>
</linearGradient>
<linearGradient id="linear3" gradientUnits="userSpaceOnUse" x1="254" y1="-136.916656" x2="254" y2="201.75" gradientTransform="matrix(3.779528,0,0,3.779528,-0.000000262818,812.59845)">
<stop offset="0" style="stop-color:rgb(39.215687%,70.980394%,96.470588%);stop-opacity:1;"/>
<stop offset="1" style="stop-color:rgb(25.882354%,64.705884%,96.078432%);stop-opacity:1;"/>
</linearGradient>
<linearGradient id="linear4" gradientUnits="userSpaceOnUse" x1="254" y1="-136.916656" x2="254" y2="201.750015" gradientTransform="matrix(3.779528,0,0,3.779528,0.0000150706,812.598389)">
<stop offset="0" style="stop-color:rgb(39.215687%,70.980394%,96.470588%);stop-opacity:1;"/>
<stop offset="1" style="stop-color:rgb(25.882354%,64.705884%,96.078432%);stop-opacity:1;"/>
</linearGradient>
<linearGradient id="linear5" gradientUnits="userSpaceOnUse" x1="254" y1="-136.916656" x2="254" y2="201.75" gradientTransform="matrix(3.779528,0,0,3.779528,0.0000122325,812.598389)">
<stop offset="0" style="stop-color:rgb(39.215687%,70.980394%,96.470588%);stop-opacity:1;"/>
<stop offset="1" style="stop-color:rgb(25.882354%,64.705884%,96.078432%);stop-opacity:1;"/>
</linearGradient>
<linearGradient id="linear6" gradientUnits="userSpaceOnUse" x1="254" y1="-136.916656" x2="254" y2="201.75" gradientTransform="matrix(3.779528,0,0,3.779528,0.0000114517,812.598389)">
<stop offset="0" style="stop-color:rgb(39.215687%,70.980394%,96.470588%);stop-opacity:1;"/>
<stop offset="1" style="stop-color:rgb(25.882354%,64.705884%,96.078432%);stop-opacity:1;"/>
</linearGradient>
<linearGradient id="linear7" gradientUnits="userSpaceOnUse" x1="254" y1="-136.916656" x2="254" y2="201.75" gradientTransform="matrix(3.779528,0,0,3.779528,0.00000924297,812.598389)">
<stop offset="0" style="stop-color:rgb(39.215687%,70.980394%,96.470588%);stop-opacity:1;"/>
<stop offset="1" style="stop-color:rgb(25.882354%,64.705884%,96.078432%);stop-opacity:1;"/>
</linearGradient>
<linearGradient id="linear8" gradientUnits="userSpaceOnUse" x1="254" y1="-136.916656" x2="254" y2="201.750015" gradientTransform="matrix(3.779528,0,0,3.779528,0.0000140149,812.598389)">
<stop offset="0" style="stop-color:rgb(39.215687%,70.980394%,96.470588%);stop-opacity:1;"/>
<stop offset="1" style="stop-color:rgb(25.882354%,64.705884%,96.078432%);stop-opacity:1;"/>
</linearGradient>
<linearGradient id="linear9" gradientUnits="userSpaceOnUse" x1="254" y1="-73.416664" x2="254" y2="138.25" gradientTransform="matrix(1,0,0,1,0,0)">
<stop offset="0" style="stop-color:rgb(38.039216%,38.039216%,38.039216%);stop-opacity:1;"/>
<stop offset="1" style="stop-color:rgb(25.882354%,25.882354%,25.882354%);stop-opacity:1;"/>
</linearGradient>
</defs>
<g id="surface1">
<path style=" stroke:none;fill-rule:nonzero;fill:url(#radial0);" d="M 25.800781 42.050781 L 29.769531 42.050781 L 29.769531 40.066406 L 25.800781 40.066406 Z M 25.800781 42.050781 "/>
<path style=" stroke:none;fill-rule:nonzero;fill:url(#radial1);" d="M 21.832031 42.050781 L 17.859375 42.050781 L 17.859375 44.035156 L 21.832031 44.035156 Z M 21.832031 42.050781 "/>
<path style=" stroke:none;fill-rule:nonzero;fill:url(#radial2);" d="M 21.832031 42.050781 L 17.859375 42.050781 L 17.859375 40.066406 L 21.832031 40.066406 Z M 21.832031 42.050781 "/>
<path style=" stroke:none;fill-rule:nonzero;fill:url(#radial3);" d="M 25.800781 42.050781 L 29.769531 42.050781 L 29.769531 44.035156 L 25.800781 44.035156 Z M 25.800781 42.050781 "/>
<path style=" stroke:none;fill-rule:nonzero;fill:url(#linear0);" d="M 21.832031 41.554688 L 25.800781 41.554688 L 25.800781 44.035156 L 21.832031 44.035156 Z M 21.832031 41.554688 "/>
<path style=" stroke:none;fill-rule:nonzero;fill:url(#linear1);" d="M 23.816406 4.34375 C 34.226562 4.34375 42.667969 12.785156 42.667969 23.199219 C 42.667969 33.609375 34.226562 42.050781 23.816406 42.050781 C 13.402344 42.050781 4.960938 33.609375 4.960938 23.199219 C 4.960938 12.785156 13.402344 4.34375 23.816406 4.34375 Z M 23.816406 4.34375 "/>
<path style=" stroke:none;fill-rule:nonzero;fill:url(#linear2);" d="M 23.816406 37.089844 C 32.582031 37.089844 39.691406 30.871094 39.691406 23.199219 L 39.691406 22.207031 C 39.691406 14.53125 32.582031 8.3125 23.816406 8.3125 C 15.046875 8.3125 7.9375 14.53125 7.9375 22.207031 L 7.9375 23.199219 C 7.9375 30.871094 15.046875 37.089844 23.816406 37.089844 Z M 23.816406 37.089844 "/>
<path style=" stroke:none;fill-rule:nonzero;fill:rgb(0%,0%,0%);fill-opacity:0.196078;" d="M 23.816406 42.050781 C 13.371094 42.050781 4.960938 33.640625 4.960938 23.199219 C 4.960938 23.136719 4.960938 23.074219 4.960938 23.011719 C 5.0625 33.371094 13.433594 41.679688 23.816406 41.679688 C 34.199219 41.679688 42.570312 33.371094 42.667969 23.011719 C 42.667969 23.074219 42.667969 23.136719 42.667969 23.199219 C 42.667969 33.640625 34.257812 42.050781 23.816406 42.050781 Z M 23.816406 42.050781 "/>
<path style=" stroke:none;fill-rule:nonzero;fill:rgb(100%,100%,100%);fill-opacity:0.392157;" d="M 23.816406 4.34375 C 13.371094 4.34375 4.960938 12.753906 4.960938 23.199219 C 4.960938 23.257812 4.960938 23.320312 4.960938 23.382812 C 5.0625 13.023438 13.433594 4.714844 23.816406 4.714844 C 34.199219 4.714844 42.570312 13.023438 42.667969 23.382812 C 42.667969 23.320312 42.667969 23.257812 42.667969 23.199219 C 42.667969 12.753906 34.257812 4.34375 23.816406 4.34375 Z M 23.816406 4.34375 "/>
<path style="fill-rule:nonzero;fill:url(#linear3);stroke-width:11.338583;stroke-linecap:round;stroke-linejoin:miter;stroke:rgb(12.941177%,12.941177%,12.941177%);stroke-opacity:1;stroke-miterlimit:4;" d="M 429.407835 576.165482 C 360.280574 678.360452 319.969461 801.813237 319.969461 935.186334 C 319.969461 1289.640693 605.454025 1575.125256 960.065849 1575.125256 C 975.182517 1575.125256 990.299184 1574.652861 1005.258386 1573.550604 Z M 429.407835 576.165482 " transform="matrix(0.0248071,0,0,0.0248071,0,0)"/>
<path style="fill-rule:nonzero;fill:url(#linear4);stroke-width:11.338583;stroke-linecap:round;stroke-linejoin:miter;stroke:rgb(12.941177%,12.941177%,12.941177%);stroke-opacity:1;stroke-miterlimit:4;" d="M 960.065849 295.089946 C 605.454025 295.089946 319.969461 580.57451 319.969461 935.186334 C 319.969461 1068.401966 360.280574 1191.85475 429.407835 1294.049721 L 1005.258386 296.664599 C 990.299184 295.719807 975.182517 295.089946 960.065849 295.089946 Z M 960.065849 295.089946 " transform="matrix(0.0248071,0,0,0.0248071,0,0)"/>
<path style="fill-rule:nonzero;fill:url(#linear5);stroke-width:11.338583;stroke-linecap:round;stroke-linejoin:miter;stroke:rgb(12.941177%,12.941177%,12.941177%);stroke-opacity:1;stroke-miterlimit:4;" d="M 960.065849 295.089946 C 705.916877 295.089946 487.512526 441.690127 383.900367 655.05559 L 1536.073865 655.05559 C 1432.619173 441.690127 1214.057355 295.089946 960.065849 295.089946 Z M 960.065849 295.089946 " transform="matrix(0.0248071,0,0,0.0248071,0,0)"/>
<path style="fill-rule:nonzero;fill:url(#linear6);stroke-width:11.338583;stroke-linecap:round;stroke-linejoin:miter;stroke:rgb(12.941177%,12.941177%,12.941177%);stroke-opacity:1;stroke-miterlimit:4;" d="M 960.065849 295.089946 C 944.791716 295.089946 929.675049 295.719807 914.715847 296.664599 L 1490.566398 1294.049721 C 1559.693658 1191.85475 1600.004772 1068.401966 1600.004772 935.186334 C 1600.004772 580.57451 1314.520208 295.089946 960.065849 295.089946 Z M 960.065849 295.089946 " transform="matrix(0.0248071,0,0,0.0248071,0,0)"/>
<path style="fill-rule:nonzero;fill:url(#linear7);stroke-width:11.338583;stroke-linecap:round;stroke-linejoin:miter;stroke:rgb(12.941177%,12.941177%,12.941177%);stroke-opacity:1;stroke-miterlimit:4;" d="M 1490.566398 576.165482 L 960.065849 1495.132891 L 1005.258386 1573.550604 C 1338.612397 1550.403206 1600.004772 1274.524025 1600.004772 935.186334 C 1600.004772 801.813237 1559.693658 678.360452 1490.566398 576.165482 Z M 1490.566398 576.165482 " transform="matrix(0.0248071,0,0,0.0248071,0,0)"/>
<path style="fill-rule:nonzero;fill:url(#linear8);stroke-width:11.338583;stroke-linecap:round;stroke-linejoin:miter;stroke:rgb(12.941177%,12.941177%,12.941177%);stroke-opacity:1;stroke-miterlimit:4;" d="M 798.349 1215.159612 L 1005.258386 1573.550604 C 1239.881662 1557.331679 1438.760319 1415.770387 1536.073865 1215.159612 Z M 798.349 1215.159612 " transform="matrix(0.0248071,0,0,0.0248071,0,0)"/>
<path style="fill-rule:nonzero;fill:url(#linear9);stroke-width:3;stroke-linecap:round;stroke-linejoin:round;stroke:rgb(12.941177%,12.941177%,12.941177%);stroke-opacity:1;stroke-miterlimit:4;" d="M 254.017409 -31.100895 C 289.05573 -31.100895 317.511346 -2.645279 317.511346 32.434704 C 317.511346 67.473025 289.05573 95.928641 254.017409 95.928641 C 218.937426 95.928641 190.48181 67.473025 190.48181 32.434704 C 190.48181 -2.645279 218.937426 -31.100895 254.017409 -31.100895 Z M 254.017409 -31.100895 " transform="matrix(0.093759,0,0,0.093759,0,20.158175)"/>
<path style=" stroke:none;fill-rule:nonzero;fill:rgb(12.941177%,12.941177%,12.941177%);fill-opacity:1;" d="M 23.816406 4.203125 C 13.292969 4.203125 4.820312 12.675781 4.820312 23.199219 C 4.820312 33.71875 13.292969 42.191406 23.816406 42.191406 C 34.335938 42.191406 42.808594 33.71875 42.808594 23.199219 C 42.808594 12.675781 34.335938 4.203125 23.816406 4.203125 Z M 23.816406 4.484375 C 34.183594 4.484375 42.527344 12.828125 42.527344 23.199219 C 42.527344 33.566406 34.183594 41.910156 23.816406 41.910156 C 13.445312 41.910156 5.101562 33.566406 5.101562 23.199219 C 5.101562 12.828125 13.445312 4.484375 23.816406 4.484375 Z M 23.816406 4.484375 "/>
<path style=" stroke:none;fill-rule:nonzero;fill:rgb(100%,100%,100%);fill-opacity:0.196078;" d="M 20.433594 19.664062 C 21.59375 18.5 23.007812 18.03125 23.589844 18.613281 C 24.171875 19.191406 23.699219 20.605469 22.539062 21.769531 C 21.375 22.933594 19.960938 23.402344 19.378906 22.820312 C 18.796875 22.242188 19.269531 20.828125 20.433594 19.664062 Z M 20.433594 19.664062 "/>
<path style=" stroke:none;fill-rule:nonzero;fill:rgb(20.784314%,20.784314%,20.784314%);fill-opacity:0.235294;" d="M 23.820312 7.320312 C 15.023438 7.320312 7.941406 14.402344 7.941406 23.199219 C 7.941406 23.316406 7.945312 23.433594 7.945312 23.554688 C 8.132812 14.921875 15.140625 8.03125 23.820312 8.03125 C 32.496094 8.03125 39.503906 14.921875 39.691406 23.554688 C 39.695312 23.433594 39.695312 23.316406 39.695312 23.199219 C 39.695312 14.402344 32.613281 7.320312 23.820312 7.320312 Z M 23.820312 7.320312 "/>
<path style=" stroke:none;fill-rule:nonzero;fill:rgb(100%,100%,100%);fill-opacity:0.392157;" d="M 23.820312 39.816406 C 15.023438 39.816406 7.941406 32.738281 7.941406 23.941406 C 7.941406 23.824219 7.945312 23.703125 7.945312 23.585938 C 8.132812 32.214844 15.140625 39.105469 23.820312 39.105469 C 32.496094 39.105469 39.503906 32.214844 39.691406 23.585938 C 39.695312 23.703125 39.695312 23.824219 39.695312 23.941406 C 39.695312 32.738281 32.613281 39.816406 23.820312 39.816406 Z M 23.820312 39.816406 "/>
<path style="fill:none;stroke-width:3;stroke-linecap:round;stroke-linejoin:miter;stroke:rgb(12.941177%,12.941177%,12.941177%);stroke-opacity:1;stroke-miterlimit:4;" d="M 254.015149 -136.924367 C 347.506221 -136.924367 423.332313 -61.098275 423.332313 32.43446 C 423.332313 125.925532 347.506221 201.751624 254.015149 201.751624 C 160.482414 201.751624 84.656322 125.925532 84.656322 32.43446 C 84.656322 -61.098275 160.482414 -136.924367 254.015149 -136.924367 Z M 254.015149 -136.924367 " transform="matrix(0.093759,0,0,0.093759,0.00411821,20.158198)"/>
</g>
</svg>
